X:121
U: ~ = !turn!
%%topmargin 3cm
T:MacMahon's Hornpipe
B:Traditional Irish Fiddle Tunes. Randy Miller and Jack Perron.
Z:Transcribed by Ralph Palmer
R:Hornpipe
M:C|
L:1/8
K:G
G3 D PEDEG | {/B}AGAB d2 Bd | eged BAGA | BAGE PEDDE |
G3 D E3 G | AGAB d2 Bd | eged BAGA | BAGE PED D2 ::
ea ((3{/b}aga) efge | dB{/c}BA B2 Bd | eB ((3{/c}BAB) eBgB | eB{/c}BA dBAB |
ea a2 efge | dB{/c}BA B2 Bd | eged BAGA | BAGE {/F}ED D2 :|]
